icons/person-star-outline.svg

<svg xmlns="http://www.w3.org/2000/svg" width="24" height="24" viewBox="0 0 24 24">
  <path d="M10.4676228,16.0003645 L11.0076763,16.0057544 C14.4141691,16.0682088 15.80903,16.6867426 15.9842893,19.0917479 L15.9953786,19.2802927 L16,19.5 L16,20.5 C16,20.7383924 15.9971539,20.817813 15.9690676,20.9648045 C15.9064905,21.2923056 15.7318635,21.5826456 15.4244325,21.7746571 C15.1451825,21.9490675 14.9786076,21.9883117 14.4919729,21.9973073 L14,22 L4,22 L3.65107363,21.9952256 C2.49782794,21.9601842 2.04900063,21.7156474 2.0039004,20.7255244 L2.00017148,20.5789484 L2,19.5 C2,16.7811217 3.40027757,16.074116 6.99322939,16.0059404 L7.53477183,16.0003645 L10.4676228,16.0003645 Z M7.53716646,18.0003616 C4.63739326,18.0073055 4.03538181,18.220675 4.00155904,19.3876232 L3.99999999,19.4998411 L3.999,20 L14,20 L14.0002452,19.5221452 L13.9966548,19.3478329 C13.9474604,18.265257 13.4009903,18.0221242 10.7281847,18.0016669 L7.53716646,18.0003616 Z M9,6 C11.209139,6 13,7.790861 13,10 C13,12.209139 11.209139,14 9,14 C6.790861,14 5,12.209139 5,10 C5,7.790861 6.790861,6 9,6 Z M9,8 C7.8954305,8 7,8.8954305 7,10 C7,11.1045695 7.8954305,12 9,12 C10.1045695,12 11,11.1045695 11,10 C11,8.8954305 10.1045695,8 9,8 Z M18.2212829,2.18140769 C18.3198892,2.23007281 18.3997029,2.30988657 18.448368,2.40849288 L19.3225168,4.17971176 L21.2771729,4.46373992 C21.5504453,4.50344873 21.7397861,4.75717015 21.7000773,5.03044258 C21.684265,5.1392611 21.6330214,5.23983231 21.5542796,5.31658661 L20.1398772,6.69528824 L20.4737723,8.64204618 C20.5204528,8.9142144 20.3376589,9.17269237 20.0654907,9.21937287 C19.9571118,9.23796129 19.8456278,9.22030395 19.7482976,9.16913442 L18,8.25 L16.2517024,9.16913442 C16.0072801,9.29763482 15.7049666,9.20366157 15.5764662,8.95923927 C15.5252966,8.86190903 15.5076393,8.75042499 15.5262277,8.64204618 L15.8601228,6.69528824 L14.4457204,5.31658661 C14.2479786,5.123836 14.2439325,4.80727937 14.4366831,4.60953758 C14.5134374,4.53079576 14.6140086,4.47955217 14.7228271,4.46373992 L16.6774832,4.17971176 L17.551632,2.40849288 C17.6738431,2.16086605 17.973656,2.05919655 18.2212829,2.18140769 Z"/>
</svg>

<svg xmlns="http://www.w3.org/2000/svg" viewBox="0 0 24 24">
  <path d="M10.47 16H11c3.4.07 4.8.69 4.97 3.1l.02.18v1.22c0 .24 0 .32-.03.46a1.2 1.2 0 0 1-.55.81c-.27.18-.44.22-.93.23H3.65c-1.15-.04-1.6-.28-1.65-1.27V19.5c0-2.72 1.4-3.43 5-3.5h3.46zm-2.93 2c-2.9 0-3.5.22-3.54 1.39V20h10v-.65c-.05-1.08-.6-1.33-3.27-1.35h-3.2zM9 6a4 4 0 1 1 0 8 4 4 0 0 1 0-8zm0 2a2 2 0 1 0 0 4 2 2 0 0 0 0-4zm9.22-5.82c.1.05.18.13.23.23l.87 1.77 1.96.28a.5.5 0 0 1 .27.86L20.14 6.7l.33 1.94a.5.5 0 0 1-.72.53L18 8.25l-1.75.92a.5.5 0 0 1-.72-.53l.33-1.94-1.41-1.38a.5.5 0 0 1 .27-.86l1.96-.28.87-1.77a.5.5 0 0 1 .67-.23z"/>
</svg>
